assets/projects/turret.svg

<svg baseProfile="basic" xmlns="http://www.w3.org/2000/svg" width="128" height="128" viewBox="0 0 128 128"><path fill="#05BED5" d="M93.3 104l-6-56.2 16.7-11.9v-35.9h-16v14h-12v-14h-24v14h-12v-14h-16v35.9l16.7 11.9-6 56.2h-14.7v24h88v-24z"/></svg>

<svg xmlns="http://www.w3.org/2000/svg" width="128" height="128" viewBox="0 0 128 128"><title>turret</title><path d="M93.3,104l-6-56.2L104,35.9V0H88V14H76V0H52V14H40V0H24V35.9L40.7,47.8l-6,56.2H20v24h88V104H93.3Z" fill="#05bed5"/></svg>
